svg/fluentui-system-icons/ic_fluent_water_20_regular.svg

<svg width="20" height="20" viewBox="0 0 20 20" fill="none" xmlns="http://www.w3.org/2000/svg">
<path d="M15 4C15.2084 4 15.395 4.12928 15.4682 4.32443C15.9082 5.49786 16.7438 5.99989 17.5 5.99989C17.7761 5.99989 18 6.22375 18 6.49989C18 6.77604 17.7761 6.99989 17.5 6.99989C16.5383 6.99989 15.6241 6.50297 15 5.58739C14.3759 6.50297 13.4617 6.9999 12.5 6.99995C11.5384 7 10.6241 6.50315 10 5.58768C9.37591 6.50315 8.46164 7 7.5 7C6.53854 7 5.62443 6.50334 5.00035 5.58819C4.37636 6.50483 3.46202 7.00254 2.50001 7.00255C2.22387 7.00256 2 6.7787 2 6.50256C2 6.22642 2.22385 6.00256 2.49999 6.00255C3.2559 6.00254 4.0916 5.50011 4.53177 4.32503C4.60489 4.12983 4.79144 4.00047 4.99989 4.00042C5.20834 4.00038 5.39495 4.12966 5.46815 4.32483C5.90819 5.49801 6.74371 6 7.5 6C8.25629 6 9.09181 5.49801 9.53185 4.32483C9.60504 4.12969 9.79159 4.00042 10 4.00042C10.2084 4.00042 10.395 4.12969 10.4682 4.32483C10.9082 5.49802 11.7437 5.99999 12.5 5.99995C13.2562 5.99991 14.0918 5.49785 14.5318 4.32443C14.605 4.12928 14.7916 4 15 4ZM15 9C15.2084 9 15.395 9.12928 15.4682 9.32443C15.9082 10.4979 16.7438 10.9999 17.5 10.9999C17.7761 10.9999 18 11.2238 18 11.4999C18 11.776 17.7761 11.9999 17.5 11.9999C16.5383 11.9999 15.6241 11.503 15 10.5874C14.3759 11.503 13.4617 11.9999 12.5 11.9999C11.5384 12 10.6241 11.5032 10 10.5877C9.37591 11.5032 8.46164 12 7.5 12C6.53854 12 5.62443 11.5033 5.00035 10.5882C4.37636 11.5048 3.46202 12.0025 2.50001 12.0026C2.22387 12.0026 2 11.7787 2 11.5026C2 11.2264 2.22385 11.0026 2.49999 11.0026C3.2559 11.0025 4.0916 10.5001 4.53177 9.32503C4.60489 9.12983 4.79144 9.00047 4.99989 9.00042C5.20834 9.00038 5.39495 9.12966 5.46815 9.32483C5.90819 10.498 6.74371 11 7.5 11C8.25629 11 9.09181 10.498 9.53185 9.32483C9.60504 9.12969 9.79159 9.00042 10 9.00042C10.2084 9.00042 10.395 9.12969 10.4682 9.32483C10.9082 10.498 11.7437 11 12.5 10.9999C13.2562 10.9999 14.0918 10.4979 14.5318 9.32443C14.605 9.12928 14.7916 9 15 9ZM15.4682 14.3244C15.395 14.1293 15.2084 14 15 14C14.7916 14 14.605 14.1293 14.5318 14.3244C14.0918 15.4979 13.2562 15.9999 12.5 15.9999C11.7437 16 10.9082 15.498 10.4682 14.3248C10.395 14.1297 10.2084 14.0004 10 14.0004C9.79159 14.0004 9.60504 14.1297 9.53185 14.3248C9.09181 15.498 8.25629 16 7.5 16C6.74371 16 5.90819 15.498 5.46815 14.3248C5.39495 14.1297 5.20834 14.0004 4.99989 14.0004C4.79144 14.0005 4.60489 14.1298 4.53177 14.325C4.0916 15.5001 3.2559 16.0025 2.49999 16.0026C2.22385 16.0026 2 16.2264 2 16.5026C2 16.7787 2.22387 17.0026 2.50001 17.0026C3.46202 17.0025 4.37636 16.5048 5.00035 15.5882C5.62443 16.5033 6.53854 17 7.5 17C8.46164 17 9.37591 16.5032 10 15.5877C10.6241 16.5032 11.5384 17 12.5 16.9999C13.4617 16.9999 14.3759 16.503 15 15.5874C15.6241 16.503 16.5383 16.9999 17.5 16.9999C17.7761 16.9999 18 16.776 18 16.4999C18 16.2238 17.7761 15.9999 17.5 15.9999C16.7438 15.9999 15.9082 15.4979 15.4682 14.3244Z" fill="#212121"/>
</svg>

<svg xmlns="http://www.w3.org/2000/svg" width="20" height="20"><path d="M15 4a.5.5 0 0 1 .468.324C15.908 5.498 16.744 6 17.5 6a.5.5 0 0 1 0 1c-.962 0-1.876-.497-2.5-1.413C14.376 6.503 13.462 7 12.5 7s-1.876-.497-2.5-1.412C9.376 6.503 8.462 7 7.5 7 6.539 7 5.624 6.503 5 5.588c-.624.917-1.538 1.415-2.5 1.415a.5.5 0 1 1 0-1c.756 0 1.592-.503 2.032-1.678a.5.5 0 0 1 .936 0C5.908 5.498 6.744 6 7.5 6s1.592-.502 2.032-1.675a.5.5 0 0 1 .936 0C10.908 5.498 11.744 6 12.5 6s1.592-.502 2.032-1.676A.5.5 0 0 1 15 4Zm0 5a.5.5 0 0 1 .468.324C15.908 10.498 16.744 11 17.5 11a.5.5 0 0 1 0 1c-.962 0-1.876-.497-2.5-1.413-.624.916-1.538 1.413-2.5 1.413s-1.876-.497-2.5-1.412C9.376 11.503 8.462 12 7.5 12c-.961 0-1.876-.497-2.5-1.412-.624.917-1.538 1.415-2.5 1.415a.5.5 0 0 1 0-1c.756 0 1.592-.503 2.032-1.678a.5.5 0 0 1 .936 0C5.908 10.498 6.744 11 7.5 11s1.592-.502 2.032-1.675a.5.5 0 0 1 .936 0C10.908 10.498 11.744 11 12.5 11s1.592-.502 2.032-1.676A.5.5 0 0 1 15 9Zm.468 5.324a.5.5 0 0 0-.936 0C14.092 15.498 13.256 16 12.5 16s-1.592-.502-2.032-1.675a.5.5 0 0 0-.936 0C9.092 15.498 8.256 16 7.5 16s-1.592-.502-2.032-1.675a.5.5 0 0 0-.936 0c-.44 1.175-1.276 1.678-2.032 1.678a.5.5 0 1 0 0 1c.962 0 1.876-.498 2.5-1.415C5.624 16.503 6.54 17 7.5 17c.962 0 1.876-.497 2.5-1.412.624.915 1.538 1.412 2.5 1.412s1.876-.497 2.5-1.413c.624.916 1.538 1.413 2.5 1.413a.5.5 0 0 0 0-1c-.756 0-1.592-.502-2.032-1.676Z"/></svg>
